X: 1899
T: Around The World For Sport
R: reel
M: 4/4
K: Edorian
|G2BG FAAF|EBBA BGEF|G2BG FAAB|dBAG FDDF|
G2 BG FAAF|EBBA BGEF|GABG FAAB|dBAG FDDg||
f2 ec dBAF|EBBA BGEg|f2 ec dBAF|GBAG FDDg|
f2 ec dBAF|EBBA BGEg|f2 ec dBAF|GBAG FDDF||

